svgs/sharp-light/list.svg

<svg xmlns="http://www.w3.org/2000/svg" viewBox="0 0 512 512"><!--! Font Awesome Pro 6.6.0 by @fontawesome - https://fontawesome.com License - https://fontawesome.com/license (Commercial License) Copyright 2024 Fonticons, Inc. --><path d="M48 80l32 0 0 32-32 0 0-32zM16 48l0 32 0 32 0 32 32 0 32 0 32 0 0-32 0-32 0-32L80 48 48 48 16 48zM176 80l-16 0 0 32 16 0 320 0 16 0 0-32-16 0L176 80zm0 160l-16 0 0 32 16 0 320 0 16 0 0-32-16 0-320 0zm0 160l-16 0 0 32 16 0 320 0 16 0 0-32-16 0-320 0zM80 240l0 32-32 0 0-32 32 0zM48 208l-32 0 0 32 0 32 0 32 32 0 32 0 32 0 0-32 0-32 0-32-32 0-32 0zm0 192l32 0 0 32-32 0 0-32zM16 368l0 32 0 32 0 32 32 0 32 0 32 0 0-32 0-32 0-32-32 0-32 0-32 0z"/></svg>

<svg xmlns="http://www.w3.org/2000/svg" viewBox="0 0 512 512"><!--! Font Awesome Pro 6.4.0 by @fontawesome - https://fontawesome.com License - https://fontawesome.com/license (Commercial License) Copyright 2023 Fonticons, Inc. --><path d="M48 80H80v32H48V80zM16 48V80v32 32H48 80h32V112 80 48H80 48 16zM176 80H160v32h16H496h16V80H496 176zm0 160H160v32h16H496h16V240H496 176zm0 160H160v32h16H496h16V400H496 176zM80 240v32H48V240H80zM48 208H16v32 32 32H48 80h32V272 240 208H80 48zm0 192H80v32H48V400zM16 368v32 32 32H48 80h32V432 400 368H80 48 16z"/></svg>
